docs/svgs/room-games.svg

<svg viewBox="0 0 24 24" height="24px" width="24px" fill="#44739e" xmlns="http://www.w3.org/2000/svg"><title>hue:room-games</title><desc>Source: https://github.com/arallsopp/hass-hue-icons</desc><path d="M 20.25 10.449219 C 19.835938 10.449219 19.5 10.113281 19.5 9.699219 C 19.5 9.285156 19.835938 8.949219 20.25 8.949219 C 20.664062 8.949219 21 9.285156 21 9.699219 C 21 10.113281 20.664062 10.449219 20.25 10.449219 M 18 8.199219 C 17.585938 8.199219 17.25 7.863281 17.25 7.449219 C 17.25 7.035156 17.585938 6.699219 18 6.699219 C 18.414062 6.699219 18.75 7.035156 18.75 7.449219 C 18.75 7.863281 18.414062 8.199219 18 8.199219 M 18 12.75 C 17.585938 12.75 17.25 12.414062 17.25 12 C 17.25 11.585938 17.585938 11.25 18 11.25 C 18.414062 11.25 18.75 11.585938 18.75 12 C 18.75 12.414062 18.414062 12.75 18 12.75 M 15.75 10.449219 C 15.335938 10.449219 15 10.113281 15 9.699219 C 15 9.285156 15.335938 8.949219 15.75 8.949219 C 16.164062 8.949219 16.5 9.285156 16.5 9.699219 C 16.5 10.113281 16.164062 10.449219 15.75 10.449219 M 7.472656 10.449219 L 6.722656 10.449219 L 6.722656 11.199219 C 6.722656 11.613281 6.382812 11.949219 5.972656 11.949219 C 5.558594 11.949219 5.222656 11.613281 5.222656 11.199219 L 5.222656 10.449219 L 4.472656 10.449219 C 4.058594 10.449219 3.722656 10.113281 3.722656 9.699219 C 3.722656 9.289062 4.058594 8.949219 4.472656 8.949219 L 5.222656 8.949219 L 5.222656 8.199219 C 5.222656 7.789062 5.558594 7.449219 5.972656 7.449219 C 6.382812 7.449219 6.722656 7.789062 6.722656 8.199219 L 6.722656 8.949219 L 7.472656 8.949219 C 7.882812 8.949219 8.222656 9.289062 8.222656 9.699219 C 8.222656 10.113281 7.882812 10.449219 7.472656 10.449219 M 18.269531 5.25 L 6.433594 5.25 C 3.894531 5.25 1.5 7.273438 1.5 9.699219 L 1.5 16.046875 C 1.5 17.617188 3.046875 18.75 4.457031 18.75 C 5.585938 18.75 6.652344 18.03125 7.066406 17.039062 L 8.492188 13.496094 L 15.507812 13.496094 L 17.414062 17.039062 C 17.980469 18.03125 18.695312 18.675781 19.8125 18.675781 C 21.371094 18.675781 22.5 17.617188 22.5 16.046875 L 22.5 9.699219 C 22.5 7.273438 20.65625 5.25 18.269531 5.25 "/></svg>

<svg viewBox="0 0 24 24" height="24px" width="24px" fill="#44739e" xmlns="http://www.w3.org/2000/svg"><title>hue:room-games</title><desc>Source: https://github.com/arallsopp/hass-hue-icons</desc><path d="M20.25,10.45c-0.41,0-0.75-0.34-0.75-0.75s0.34-0.75,0.75-0.75S21,9.29,21,9.7S20.66,10.45,20.25,10.45 M18,8.2 c-0.41,0-0.75-0.34-0.75-0.75c0-0.41,0.34-0.75,0.75-0.75s0.75,0.34,0.75,0.75C18.75,7.86,18.41,8.2,18,8.2 M18,12.75 c-0.41,0-0.75-0.34-0.75-0.75s0.34-0.75,0.75-0.75s0.75,0.34,0.75,0.75S18.41,12.75,18,12.75 M15.75,10.45 c-0.41,0-0.75-0.34-0.75-0.75s0.34-0.75,0.75-0.75c0.41,0,0.75,0.34,0.75,0.75S16.16,10.45,15.75,10.45 M7.47,10.45H6.72v0.75 c0,0.41-0.34,0.75-0.75,0.75c-0.41,0-0.75-0.34-0.75-0.75v-0.75H4.47c-0.41,0-0.75-0.34-0.75-0.75c0-0.41,0.34-0.75,0.75-0.75h0.75 V8.2c0-0.41,0.34-0.75,0.75-0.75c0.41,0,0.75,0.34,0.75,0.75v0.75h0.75c0.41,0,0.75,0.34,0.75,0.75 C8.22,10.11,7.88,10.45,7.47,10.45 M18.27,5.25H6.43C3.89,5.25,1.5,7.27,1.5,9.7v6.35c0,1.57,1.55,2.7,2.96,2.7 c1.13,0,2.2-0.72,2.61-1.71l1.43-3.54h7.02l1.91,3.54c0.57,0.99,1.28,1.64,2.4,1.64c1.56,0,2.69-1.06,2.69-2.63V9.7 C22.5,7.27,20.66,5.25,18.27,5.25"/></svg>
